X:241
T:The Geese in the Bog
T:The Old Geese in the Bog
M:6/8
L:1/8
R:jig
D:Music at Matt Molloy's
D:Arcady: Many Happy Returns
D:Scottish Bagpipes & Drums: Scottish Bagpipes And Drums
D:William McCallum: Hailey's Song
D:Folk Like Us: Spring Dance: Spirited Traditional Dance Music
D:Liz Carroll: Liz Carroll
D:Eileen Ivers: Eileen Ivers
D:Joe Derrane: Tie That Binds
D:Nicolas Buckmelter: Mountain Eire
N:Played in C or D
Z:Transcribed by Henrik Norbeck: hn-jig-248
K:C
cEE GEE|cEE GAB|cEE GED|EAA A2B|cEE GEE|cEE GAB|cBA GED|EAA A2B:|
cde ged|e2a ged|cde ged|a3 age|cde ged|e2a ged|cBA GED|EAA A2B:|
%%text Also played in D.
